X: 1
T: An Pastin Fionn
M: 4/4
L: 1/8
R: hornpipe
K: Edor
(3Bcd |: e>gfe d>efd | g>bag f2gf | e>fed BAGA | B>dcA B2 (3Bcd |
e>gfe d>efd | g>bag f2gf | e>fed BAFB |1 E2 ED E2 (3Bcd:|2 E2 ED E2 EF ||
|: G>ABc d>BBd | c>AAc d>BBA | G>ABc dBBA | B>eed e2EF |
G>ABc d>BBA | B>eef g2gf | e>fed B>AFB |1 E2 ED E2 EF :|2E2 ED E2 (3Bcd ||
